resources/svg/thumbtack.svg

<svg xmlns="http://www.w3.org/2000/svg" viewBox="0 0 15 15" fill="currentColor"><path d="M8.70206 1.40917L8.14648 0.853591L8.85359 0.146484L14.8536 6.14648L14.1465 6.85359L13.5908 6.29795L9.13477 13.4277L9.85359 14.1465L9.14648 14.8536L5.00004 10.7071L0.853591 14.8536L0.146484 14.1465L4.29293 10L0.146484 5.85359L0.853591 5.14648L1.57235 5.86524L8.70206 1.40917Z" fill="black"/></svg>

<svg xmlns="http://www.w3.org/2000/svg" viewBox="0 0 15 15" fill="currentColor"><path d="M8.702 1.41L8.146.853l.708-.708 6 6-.707.708-.556-.556-4.456 7.13.719.718-.708.708L5 10.707.854 14.854l-.708-.707L4.293 10 .146 5.854l.708-.708.718.72 7.13-4.457z" fill="currentColor"/></svg>
